X:1
T:The Prodigal Son
T:George Coles Stebbins
T:The Prodigal Son
T:Public Domain
T:Public Domain
T:Public Domain
C:George Coles Stebbins
Z:Public Domain
%%score ( 1 2 ) ( 3 4 )
L:1/8
M:6/4
K:Bb
V:1 treble 
V:2 treble 
V:3 bass 
V:4 bass 
V:1
 B2 A2 G2 F3 =E F2 | [B,DG]4 G2 B,4 z2 | F2 G2 A2 B3 A B2 | [EGc]4 G2 [CE]4 z2 | %4
w: 1.~Out in the wil- der- ness|drear, Sad- ly|wan- dered for many a year,|by hun- ger|
w: 2.~Why should I per- ish in|spair, Here where|no one to help or care,|is shel- ter|
w: 3.~Sweet are the mem- ories that|me, Fac- es|loved ones a- gain I see,|of home where|
w: 4.~O that I nev- er had|stray! Life was|ra- diant with hope one day,|its trea- sures|
 B2 A2 G2 F3 =E F2 | [B,DG]4 G2 B,4 z2 | B3 c d2 [EFc]4 F2 | [DFB]12 | G2 A2 B2 B3 A G2 | %9
w: filled with fear, I will a-|go; Back- ward|sor- row my steps to|Seek-|ing my heav- en- ly Fa-|
w: food to spare? I will a-|go; Deep- ly|pent- ing the wrong I’ve|Wor-|thy no more to be called|
w: used to be, I will a-|go; O- thers|gone who had wan- dered,|They|were for- giv- en, were clothed|
w: thrown a- way, Yet I’ll a-|go; Some- thing|say- ing, “God loves you|Tho’|you have treat- ed His love|
 [D^FA]4 A2 [DF]4 z2 | B2 A2 G2 G3 ^F G2 | [D^FA]4 A2 [A,D]6 | G2 A2 B2 B3 A G2 | %13
w: Will- ing to|but a ser- vant’s place, I|rise and go.||
w: Hop- ing my|ther His child may own, I|rise and go.|Back to my Fa- ther and|
w: Why should I|ger with home in view? I|rise and go.||
w: I must not|for the night grows chill, I|rise and go.||
 [CEe]4 e2 [D^F]4 z2 | B3 A G2 [C=Ec]4 E2 | [A,CF]12 || %16
w: |||
w: to my Fa-|and home, I will a-|and|
w: |||
w: |||
"^Refrain" [DF]3 [DG] [DA]2 [DB]3 [DA] [DG]2 | [EA]12 | [EF]3 [EA] [DB]2 [Ec]3 [DB] [EA]2 | %19
w: |||
w: go Back to my Fa- ther|and|home. * * * * *|
w: |||
w: |||
 [DB]12 | [FB]3 [FB] [FB]2 [Fd]4 [_AB]2 | [G-e]6 [EG]6 | [DF]3 [DG] [FB]2 [EA]3 [EG] [EA]2 | %23
w: ||||
w: ||||
w: ||||
w: ||||
 [DB]12 |] %24
w: |
w: |
w: |
w: |
V:2
 [B,D]4 D4 x4 | x6 D6 | [B,D]4 [DF]4 x4 | x2 A6 x4 | [B,D]4 D4 x4 | x6 D6 | [DF]4 x8 | x12 | %8
w: wild and|I’ve|Driv- en|and|rise and|with|trace,||
w: dark de-|there’s|When there|and|rise and|re-|done,||
w: come to|of|Vi- sions|I|rise and|have|too,||
w: gone a-|all|Now all|I’ve|rise and|is|still,||
 [B,D]4 D4 x4 | x2 d6 x4 | [B,D]4 [CE]4 x4 | x12 | [B,D]4 [B,D]4 x4 | x2 d6 x4 | [B,D]4 x8 | x12 || %16
w: ther’s face,|take|will a-||||||
w: a son,|Fa-|will a-||home, Back|ther|rise||
w: a- new,|lin-|will a-||||||
w: so ill,”|wait,|will a-||||||
 x12 | x12 | x12 | x12 | x12 | x12 | x12 | x12 |] %24
w: ||||||||
w: ||||||||
w: ||||||||
w: ||||||||
V:3
 [B,,F,]4 z2 [B,,F,]4 z2 | [G,,G,]4 z2 [G,,G,]4 z2 | [B,,F,]4 z2 [B,,B,]4 z2 | %3
w: ~ ~|~ ~|~ ~|
 [E,,E,]4 z2 [F,,F,]4 z2 | [B,,F,]4 z2 [B,,F,]4 z2 | [G,,G,]4 z2 [G,,G,]4 z2 | %6
w: ~ ~|~ ~|~ ~|
 [B,,B,]4 z2 [F,,F,A,]4 z2 | [B,,B,]12 | [G,,G,]4 z2 [G,,G,]4 z2 | [D,,D,]4 z2 [D,,D,]4 z2 | %10
w: ~ ~|~|~ ~|~ ~|
 [G,,G,]4 z2 [E,,E,]4 z2 | [D,,D,]4 z2 [D,,D,]4 z2 | [G,,G,]4 z2 [G,,G,]4 z2 | %13
w: ~ ~|~ ~|~ ~|
 [C,,C,]4 z2 [D,,D,]4 z2 | [G,,G,]4 z2 [C,,C,]4 z2 | [F,,F,]12 || %16
w: ~ ~|~ ~|~|
 [B,,B,]3 [B,,B,] [B,,F,]2 [B,,F,]3 [B,,F,] [B,,F,]2 | [C,F,]4 [C,A,]2 [E,C]6 | %18
w: ~ ~ ~ ~ ~ ~|~ and home,|
 [F,A,]3 [F,C] [F,B,]2 [F,A,]3 [F,B,] [F,C]2 | B,4 G,2 [B,,F,]6 | %20
w: ~ ~ ~ ~ ~ ~|~ ~ ~|
 [B,,D]3 [D,D] [F,D]2 B,4 [D,B,]2 | [E,B,]4 [E,B,]2 [E,B,]6 | %22
w: * ~ ~ ~ ~|go * *|
 [F,B,]3 [E,G,B,] [F,D]2 [F,C]3 [F,B,] [F,C]2 | B,4 G,2 [B,,F,]6 |] %24
w: ||
V:4
 x12 | x12 | x12 | x12 | x12 | x12 | x12 | x12 | x12 | x12 | x12 | x12 | x12 | x12 | x12 | x12 || %16
w: ||||||||||||||||
 x12 | x12 | x12 | B,,6- x6 | x6 B,4 x2 | x12 | x12 | B,,6- x6 |] %24
w: |||~|and||||

